packages/foundations/assets/icons/functional/images/maps/location_pin_14_filled.svg

<svg width="14" height="14" viewBox="0 0 14 14" fill="none" xmlns="http://www.w3.org/2000/svg">
<g clip-path="url(#clip0_2213_5047)">
<path fill-rule="evenodd" clip-rule="evenodd" d="M3.5 11.9C3.5 11.5282 3.85 11.2 4.2 11.2H9.8C10.1938 11.2 10.5 11.5062 10.5 11.9C10.5 12.2937 10.15 12.6 9.8 12.6H4.2C3.85 12.6 3.5 12.2937 3.5 11.9ZM7 1.39999C8.94688 1.39999 10.5 2.82187 10.5 4.65937C10.5 5.31562 10.2813 5.99374 9.86563 6.62812L7.59062 10.1719C7.4375 10.3906 7.21875 10.5 7 10.5C6.78125 10.5 6.5625 10.3906 6.40938 10.1719L4.13438 6.62812C3.71875 5.99374 3.5 5.31562 3.5 4.65937C3.5 2.82187 5.05313 1.39999 7 1.39999ZM7 3.49999C6.23438 3.49999 5.6 4.13936 5.6 4.91102C5.6 5.68267 6.23438 6.29999 7 6.29999C7.76562 6.29999 8.4 5.68267 8.4 4.91102C8.4 4.13936 7.76562 3.49999 7 3.49999Z" fill="#1A1C1F"/>
</g>
<defs>
<clipPath id="clip0_2213_5047">
<rect width="14" height="14" fill="white"/>
</clipPath>
</defs>
</svg>

<svg xmlns="http://www.w3.org/2000/svg" width="14" height="14" fill="none"><g clip-path="url(#a)"><path fill="#1A1C1F" fill-rule="evenodd" d="M3.5 11.9c0-.372.35-.7.7-.7h5.6c.394 0 .7.306.7.7s-.35.7-.7.7H4.2a.72.72 0 0 1-.7-.7M7 1.4c1.947 0 3.5 1.422 3.5 3.26 0 .656-.219 1.334-.634 1.968L7.59 10.172A.72.72 0 0 1 7 10.5a.72.72 0 0 1-.59-.328L4.133 6.628C3.72 5.994 3.5 5.316 3.5 4.66 3.5 2.822 5.053 1.4 7 1.4m0 2.1c-.766 0-1.4.64-1.4 1.411C5.6 5.683 6.234 6.3 7 6.3s1.4-.617 1.4-1.389S7.766 3.5 7 3.5" clip-rule="evenodd"/></g><defs><clipPath id="a"><path fill="#fff" d="M0 0h14v14H0z"/></clipPath></defs></svg>
